X:1
T:[ID 1-69]
T:[ID 1-69]
T:Bezeichnung standardisiert: March March
T:Urheber unbekannt Datum in der hier transkribierten schriftlichen Quelle: vermutlich vor 1767
C:Urheber unbekannt
C:Datum in der hier transkribierten schriftlichen Quelle: vermutlich vor 1767
L:1/8
M:4/4
K:D
V:1 treble 
V:1
 d | f2 ff ffff | f4 z2 f2 | e2 fg a2 g2 | f2 e2 d2 A2 | d2 dd d4 | e2 ee e2 g2 | f2 e2 defd"^F" | %8
 e2 ee eeee | e6 :: !fermata!e | a3 b agfe | d2 dd d2 d2 | g3 a gfed | c2 cc c2 A2 | d2 dd defd | %16
 e2 ee e2 g2 | fgag f2 ec | d2 dd def"^cis"c | d4 z2 :| %20

